svgs/parlera.svg

<svg xmlns="http://www.w3.org/2000/svg" viewBox="0 0 192 192"><path d="M49.689 175.549c0-.215 1.21-3.227 2.69-6.694 2.063-4.837 3.816-7.196 7.533-10.137 10.17-8.049 21.996-24.056 27.556-37.298.873-2.08 1.825-3.787 2.114-3.792.29-.006 2.402 1.9 4.693 4.235l4.166 4.245-3.97 7.896c-8.465 16.837-17.149 27.915-26.983 34.424-7.151 4.733-17.799 8.993-17.799 7.121Zm-15.667-29.986c7.097-15.85 10.025-28.69 12.248-53.703 1.645-18.503 3.57-28.43 7.825-40.338 7.431-20.802 18.067-30.82 36.767-34.633 13.622-2.777 24.624 1.106 35.988 12.7 7.67 7.825 11.195 14.419 14.324 26.792 2.58 10.203 2.191 22.866-.956 31.105-6.568 17.197-28.493 30.414-43.489 26.215-3.066-.858-6.338-2.959-10.249-6.58-3.161-2.926-5.842-5.151-5.959-4.944-.118.206-1.952 3.874-4.077 8.151-5.916 11.905-12.46 21.037-20.369 28.423-5.766 5.385-8.735 7.325-15 9.801-4.296 1.697-8.253 3.086-8.792 3.086-.539 0 .243-2.733 1.739-6.075Zm72.69-67.896c10.962-6.775 10.962-22.187 0-28.962-4.494-2.778-12.351-2.778-16.845 0-10.777 6.661-11.028 21.444-.487 28.607 4.655 3.163 12.528 3.324 17.332.355Zm4.593 53.08c-2.674-1.332-6.15-3.8-7.724-5.484l-2.861-3.062 2.43.675c5.561 1.546 9.845 1.712 14.74.573 16.431-3.823 30.009-17.625 32.989-33.533 2.073-11.066-.709-28.607-6.044-38.106-3.213-5.72-1.469-5.871 2.773-.24 8.423 11.179 12.898 24.473 12.879 38.258-.017 13.063-4.401 23.549-13.213 31.602-7.777 7.108-18.506 11.654-27.652 11.716-1.9.014-5.643-1.066-8.317-2.399Z"/></svg>

<svg
    xmlns="http://www.w3.org/2000/svg"
    viewBox="0 0 192 192"
    id="vector">
    <path
        id="path"
        d="M 49.689 175.549 C 49.689 175.334 50.899 172.322 52.379 168.855 C 54.442 164.018 56.195 161.659 59.912 158.718 C 70.082 150.669 81.908 134.662 87.468 121.42 C 88.341 119.34 89.293 117.633 89.582 117.628 C 89.872 117.622 91.984 119.528 94.275 121.863 L 98.441 126.108 L 94.471 134.004 C 86.006 150.841 77.322 161.919 67.488 168.428 C 60.337 173.161 49.689 177.421 49.689 175.549 Z M 34.022 145.563 C 41.119 129.713 44.047 116.873 46.27 91.86 C 47.915 73.357 49.84 63.43 54.095 51.522 C 61.526 30.72 72.162 20.702 90.862 16.889 C 104.484 14.112 115.486 17.995 126.85 29.589 C 134.52 37.414 138.045 44.008 141.174 56.381 C 143.754 66.584 143.365 79.247 140.218 87.486 C 133.65 104.683 111.725 117.9 96.729 113.701 C 93.663 112.843 90.391 110.742 86.48 107.121 C 83.319 104.195 80.638 101.97 80.521 102.177 C 80.403 102.383 78.569 106.051 76.444 110.328 C 70.528 122.233 63.984 131.365 56.075 138.751 C 50.309 144.136 47.34 146.076 41.075 148.552 C 36.779 150.249 32.822 151.638 32.283 151.638 C 31.744 151.638 32.526 148.905 34.022 145.563 Z M 106.712 77.667 C 117.674 70.892 117.674 55.48 106.712 48.705 C 102.218 45.927 94.361 45.927 89.867 48.705 C 79.09 55.366 78.839 70.149 89.38 77.312 C 94.035 80.475 101.908 80.636 106.712 77.667 Z M 111.305 130.747 C 108.631 129.415 105.155 126.947 103.581 125.263 L 100.72 122.201 L 103.15 122.876 C 108.711 124.422 112.995 124.588 117.89 123.449 C 134.321 119.626 147.899 105.824 150.879 89.916 C 152.952 78.85 150.17 61.309 144.835 51.81 C 141.622 46.09 143.366 45.939 147.608 51.57 C 156.031 62.749 160.506 76.043 160.487 89.828 C 160.47 102.891 156.086 113.377 147.274 121.43 C 139.497 128.538 128.768 133.084 119.622 133.146 C 117.722 133.16 113.979 132.08 111.305 130.747 Z"
        fill="#000000"
        stroke-width="12"/>
</svg>
